X:1
T:La Corne
M:4/4
R:Bourree
L:1/8
Z:midi file from Ruth Bramley -> midi2abc -> Dave Holland <dave@biff.org.uk>
D:"Transept", Patrick Bouffard
K:G
d2 Be d>c B2|A>B cd A>B ce|d2 Be d>c B2|AB/c/ BA G3z|
d2 Be d/e/d/c/ B2|A>B cd A>B c/A/c/e/|d2 Be d/e/d/c/ B2|AB/c/ BA G3z|
A/B/c/d/ ed Bz/A/ B2|A/B/c/d/ ed B3z|A/B/c/d/ ed Bz/A/ Bd|dc/B/ AB G3z|
A/B/c/d/ ed B/c/B/A/ B2|A/B/c/d/ ed B3z|A/B/c/d/ ed B/c/B/A/ Bd|dc/B/ AB G3z|]
<end>
<start>
